X: 167
T: Kerry Lasses
M:4/4
R:reel
L:1/8
K:D
"D"~F3G AF F2|"G"AGG2 dcAG|"D"~F3G AF F2|"G"B2 AG "D"FDDE|
"D"~F3G AF F2|"G"AGG2 dcAG|"D"~F3G AF F2|"Bm"BdAF "D"D2cd||
"A"~e3d cBcd|eg~g2 ea~a2|efed cBcd|egec "D"d2cd|
"A"~e3d cBcd|eg~g2 ea~a2|~a3g efed|cdec "G"dBAG|]


